X:1
T:Les Simpsons
T:Les Simpsons
T:Flute
T:Danny Elfman
L:1/8
Q:1/4=60
M:4/4
K:C
V:1 treble nm="Flûte" snm="Fl."
V:1
!ppp! c6!p! c2 |!<(! ^f2 !tenuto!g6!<)! ||[Q:1/4=172]!mp! .c.c'.c'.^f z .c'.c'.c' | %3
 .c.c'.c'.^f .c'.f.c'.f | .c.c'.c'.^f z .c'.c'.c' |"^open"!mf! !tenuto!c3 .e z .^f z (a | %6
 !tenuto!g3) .e z .c z (.A | ^F).F.F(G !tenuto!G2) z2 | z!<(! ^FFF G ^A3!<)! | %9
!p! .c2{.^c} =c(G G).c.c.c | .c2{^c} =c(G G).c.c.c | %11
 ^F/=F/^F/G/ _A/G/_A/=A/ _B/A/_B/=B/ c/B/c/^c/ | f/^d/^c/B/ ^d/^c/B/A/ ^c/B/A/G/ B/A/G/F/ | %13
!mf! B3 .^d z .f z (^d' | ^c'3) .b z .a z .f | ccc^d z fff | %16
 B/^d/f/a/ b/a/g/^d/ a/g/f/^c/ g/f/^d/B/ | e4 (^g4 | ^g4) ^a2 ^c'2 | b4 ^g2 e2 | %20
 E^F/^G/ ^AF EF/G/ AF |!f! !tenuto!e2 !tenuto!^A2 !tenuto!e2 !tenuto!A2 |!ff! c3 .e z .^f z (a | %23
 g3) e z c z (A | ^F)FF(F !tenuto!G4) |!p! e3 .^f (g^f)(ec | c3) .e z .^f z (a | %27
 g3) .e z .c z!f! (.c' | !>!^d'c'!>!=d'c') z2 e/^f/^g/^a/ | .c'.b.a.g .a.g.^f.e | %30
 .a.g.^f.e .d.e.f.d | e^d e6 | .e.e z .e z .e z .e | _e4 (g4 | g4) a2 c'2 | _b4 g2 _e2 | %36
 ^DF/G/ AG DF/G/ AF | .c.c'.c'.^f z .c'.c'.c' | .c.c'.c'.^f .c'.f.c'.f | .c.c'.c'.^f z .c'.c'.c' || %40
[M:2/4] (cB c^c ||[M:4/4]!f! !tenuto!^c3) .f z .g z (_b | !tenuto!^g3) .f z .^c z ._B | %43
!<(! .G.G.G.G z .G.G._A!<)! | z!ff! .g.g.g!<(! !>!^g2 !>!b2!<)! | .^c'.c'.c'!fff!!>!c' z4 |] %46

